;PYCAM-META-DATA: Filename: triskel_70.svg
;PYCAM-META-DATA: Timestamp: 2015-05-30 11:56:26.890803
;PYCAM-META-DATA: Version: 0.5.1
;Estimated machine time: 3 minutes
G40 (disable tool radius compensation)
G49 (disable tool length compensation)
G80 (cancel modal motion)
G54 (select coordinate system 1)
G90 (disable incremental moves)
G21 (metric)
G61 (exact path mode)
F6.00000
S1000.00000
;PYCAM_TOOLPATH_SETTINGS: START
;[Bounds]
;maxz = 0.0
;maxx = 77.4990548958
;maxy = 72.765552665
;minx = -7.4992038538
;miny = -7.067879315
;minz = 0.0
;
;[Tool]
;torus_radius = 0.25
;speed = 1000.0
;shape = SphericalCutter
;tool_radius = 0.5
;feedrate = 200.0
;
;[Process]
;engrave_offset = 0.0
;step_down = 1.0
;generator = EngraveCutter
;postprocessor = SimpleCutter
;overlap_percent = 0
;milling_style = conventional
;material_allowance = 0.0
;pocketing_type = none
;path_direction = x
;
;PYCAM_TOOLPATH_SETTINGS: END
T3 M6
G0 Z10.0000
M3 (start spindle)
G04 P3 (wait for 3 seconds)
 X54.9712 Y18.1649
G1 Z0.0000 F4
 X55.0372 Y18.2771
 X55.1204 Y18.3847
 X55.2156 Y18.4819
 X55.3174 Y18.5632
 X55.4378 Y18.6326
 X55.5710 Y18.6889
 X55.7097 Y18.7301
 X55.8465 Y18.7547
 X56.0000 Y18.7614
 X56.1600 Y18.7497
 X56.3181 Y18.7217
 X56.4663 Y18.6789
 X56.6281 Y18.6121
 X56.7879 Y18.5251
 X56.9394 Y18.4233
 X57.0756 Y18.3124
 X57.2150 Y18.1700
 X57.3453 Y18.0088
 X57.4615 Y17.8367
 X57.5593 Y17.6618
 X57.6490 Y17.4543
 X57.7229 Y17.2310
 X57.7786 Y17.0024
 X57.8143 Y16.7785
 X57.8307 Y16.5239
 X57.8256 Y16.2593
 X57.8003 Y15.9960
 X57.7564 Y15.7451
 X57.6828 Y15.4700
 X57.5836 Y15.1914
 X57.4639 Y14.9207
 X57.3292 Y14.6689
 X57.1575 Y14.4044
 X56.9587 Y14.1447
 X56.7418 Y13.8997
 X56.5161 Y13.6793
 X56.2487 Y13.4591
 X55.9551 Y13.2522
 X55.6478 Y13.0659
 X55.3392 Y12.9078
 X54.9897 Y12.7626
 X54.6175 Y12.6395
 X54.2378 Y12.5419
 X53.8660 Y12.4735
 X53.4579 Y12.4324
 X53.0325 Y12.4202
 X52.6075 Y12.4364
 X52.2001 Y12.4806
 X51.7651 Y12.5622
 X51.3212 Y12.6791
 X50.8863 Y12.8253
 X50.4775 Y12.9946
 X50.0540 Y13.2089
 X49.6314 Y13.4620
 X49.2264 Y13.7426
 X48.8554 Y14.0392
 X48.4842 Y14.3851
 X48.1250 Y14.7699
 X47.7915 Y15.1771
 X47.4969 Y15.5907
 X47.2183 Y16.0536
 X46.9632 Y16.5525
 X46.7406 Y17.0669
 X46.5596 Y17.5764
 X46.4094 Y18.1296
 X46.2933 Y18.7126
 X46.2147 Y19.3021
 X46.1768 Y19.8738
 X46.1826 Y20.4803
 X46.2314 Y21.1075
 X46.3200 Y21.7304
 X46.4453 Y22.3238
 X46.5276 Y22.6281
 X46.6237 Y22.9375
 X46.7321 Y23.2492
 X46.8517 Y23.5599
 X46.9811 Y23.8667
 X47.1188 Y24.1667
 X47.2635 Y24.4568
 X47.4140 Y24.7339
 X47.5836 Y25.0193
 X47.7685 Y25.3058
 X47.9665 Y25.5911
 X48.1754 Y25.8722
 X48.3931 Y26.1467
 X48.6175 Y26.4117
 X48.8462 Y26.6647
 X49.0774 Y26.9028
 X49.3292 Y27.1436
 X49.5967 Y27.3812
 X49.8771 Y27.6140
 X50.1674 Y27.8397
 X50.4646 Y28.0563
 X50.7660 Y28.2614
 X51.0685 Y28.4533
 X51.3690 Y28.6297
 X51.6904 Y28.8017
 X52.0269 Y28.9667
 X52.3749 Y29.1231
 X52.7308 Y29.2696
 X53.0911 Y29.4050
 X53.4525 Y29.5279
 X53.8111 Y29.6369
 X54.1638 Y29.7307
 X54.5354 Y29.8150
 X54.9201 Y29.8879
 X55.3142 Y29.9490
 X55.7135 Y29.9978
 X56.1142 Y30.0342
 X56.5124 Y30.0575
 X56.9039 Y30.0676
 X57.2851 Y30.0640
 X57.6822 Y30.0454
 X58.0894 Y30.0117
 X58.5026 Y29.9635
 X58.9179 Y29.9018
 X59.3310 Y29.8271
 X59.7378 Y29.7403
 X60.1344 Y29.6422
 X60.5165 Y29.5335
 X60.9103 Y29.4051
 X61.3100 Y29.2589
 X61.7118 Y29.0965
 X62.1117 Y28.9199
 X62.5058 Y28.7310
 X62.8904 Y28.5315
 X63.2617 Y28.3235
 X63.6157 Y28.1086
 X63.9754 Y27.8715
 X64.3360 Y27.6149
 X64.6942 Y27.3417
 X65.0467 Y27.0546
 X65.3899 Y26.7567
 X65.7207 Y26.4508
 X66.0358 Y26.1399
 X66.3318 Y25.8269
 X66.6267 Y25.4911
 X66.9172 Y25.1353
 X67.2010 Y24.7633
 X67.4753 Y24.3790
 X67.7376 Y23.9865
 X67.9853 Y23.5896
 X68.2158 Y23.1921
 X68.4265 Y22.7979
 X68.6294 Y22.3808
 X68.8226 Y21.9453
 X69.0046 Y21.4956
 X69.1739 Y21.0364
 X69.3290 Y20.5721
 X69.4682 Y20.1074
 X69.5900 Y19.6465
 X69.6931 Y19.1943
 X69.7818 Y18.7222
 X69.8558 Y18.2343
 X69.9149 Y17.7354
 X69.9586 Y17.2304
 X69.9868 Y16.7244
 X69.9992 Y16.2222
 X69.9954 Y15.7286
 X69.9753 Y15.2488
 X69.9356 Y14.7535
 X69.8767 Y14.2461
 X69.8000 Y13.7319
 X69.7064 Y13.2159
 X69.5967 Y12.7029
 X69.4722 Y12.1981
 X69.3340 Y11.7065
 X69.1829 Y11.2331
 X69.0087 Y10.7503
 X68.8122 Y10.2607
 X68.5960 Y9.7692
 X68.3624 Y9.2804
 X68.1136 Y8.7990
 X67.8524 Y8.3298
 X67.5810 Y7.8774
 X67.3018 Y7.4465
 X66.9976 Y7.0127
 X66.6694 Y6.5782
 X66.3208 Y6.1471
 X65.9556 Y5.7233
 X65.5775 Y5.3110
 X65.1901 Y4.9142
 X64.7974 Y4.5369
 X64.4028 Y4.1832
 X63.9824 Y3.8338
 X63.5379 Y3.4902
 X63.0743 Y3.1555
 X62.5961 Y2.8327
 X62.1082 Y2.5248
 X61.6153 Y2.2349
 X61.1222 Y1.9659
 X60.6336 Y1.7209
 X60.1215 Y1.4871
 X59.5869 Y1.2655
 X59.0356 Y1.0579
 X58.4731 Y0.8659
 X57.9049 Y0.6912
 X57.3367 Y0.5358
 X56.7740 Y0.4010
 X56.2225 Y0.2889
 X55.6504 Y0.1951
 X55.0596 Y0.1193
 X54.4558 Y0.0618
 X53.8450 Y0.0228
 X53.2333 Y0.0027
 X52.6265 Y0.0016
 X52.0308 Y0.0197
 X51.4519 Y0.0575
 X50.8589 Y0.1181
 X50.2519 Y0.2018
 X49.6371 Y0.3073
 X49.0203 Y0.4331
 X48.4076 Y0.5778
 X47.8051 Y0.7401
 X47.2188 Y0.9185
 X46.6549 Y1.1116
 X46.0828 Y1.3316
 X45.5032 Y1.5782
 X44.9217 Y1.8483
 X44.3435 Y2.1390
 X43.7746 Y2.4473
 X43.2206 Y2.7701
 X42.6867 Y3.1044
 X42.1789 Y3.4473
 X41.6707 Y3.8191
 X41.1622 Y4.2192
 X40.6582 Y4.6432
 X40.1632 Y5.0866
 X39.6821 Y5.5450
 X39.2194 Y6.0139
 X38.7801 Y6.4890
 X38.3688 Y6.9656
 X37.9650 Y7.4704
 X37.5685 Y8.0032
 X37.1828 Y8.5584
 X36.8112 Y9.1304
 X36.4575 Y9.7135
 X36.1251 Y10.3021
 X35.8175 Y10.8905
 X35.5382 Y11.4730
 X35.2736 Y12.0810
 X35.0237 Y12.7147
 X34.7906 Y13.3679
 X34.5760 Y14.0338
 X34.3819 Y14.7060
 X34.2103 Y15.3778
 X34.0632 Y16.0429
 X33.9425 Y16.6944
 X33.8336 Y17.2131
 X33.7033 Y17.7417
 X33.5535 Y18.2756
 X33.3854 Y18.8090
 X33.2010 Y19.3372
 X33.0017 Y19.8547
 X32.7894 Y20.3564
 X32.5657 Y20.8368
 X32.3322 Y21.2942
 X32.0761 Y21.7554
 X31.8003 Y22.2164
 X31.5075 Y22.6724
 X31.2007 Y23.1193
 X30.8829 Y23.5522
 X30.5571 Y23.9671
 X30.2260 Y24.3593
 X29.8917 Y24.7269
 X29.5351 Y25.0924
 X29.1604 Y25.4525
 X28.7711 Y25.8039
 X28.3712 Y26.1431
 X27.9644 Y26.4665
 X27.5547 Y26.7711
 X27.1458 Y27.0531
 X26.7406 Y27.3107
 X26.3150 Y27.5608
 X25.8738 Y27.8012
 X25.4210 Y28.0299
 X24.9615 Y28.2444
 X24.4996 Y28.4426
 X24.0397 Y28.6224
 X23.5864 Y28.7814
 X23.1439 Y28.9183
 X22.6843 Y29.0432
 X22.2124 Y29.1550
 X21.7329 Y29.2528
 X21.2504 Y29.3357
 X20.7699 Y29.4028
 X20.2957 Y29.4531
 X19.8328 Y29.4856
 X19.3861 Y29.5004
 X18.9267 Y29.4999
 X18.4593 Y29.4842
 X17.9885 Y29.4535
 X17.5187 Y29.4082
 X17.0549 Y29.3488
 X16.6013 Y29.2750
 X16.1629 Y29.1878
 X15.7438 Y29.0876
 X15.3169 Y28.9700
 X14.8865 Y28.8361
 X14.4568 Y28.6875
 X14.0319 Y28.5257
 X13.6160 Y28.3521
 X13.2133 Y28.1682
 X12.8281 Y27.9753
 X12.4653 Y27.7761
 X12.0996 Y27.5586
 X11.7347 Y27.3251
 X11.3739 Y27.0782
 X11.0209 Y26.8203
 X10.6794 Y26.5538
 X10.3527 Y26.2811
 X10.0447 Y26.0047
 X9.7594 Y25.7276
 X9.4762 Y25.4331
 X9.1978 Y25.1240
 X8.9268 Y24.8036
 X8.6657 Y24.4750
 X8.4173 Y24.1411
 X8.1843 Y23.8053
 X7.9692 Y23.4703
 X7.7760 Y23.1418
 X7.5892 Y22.7976
 X7.4105 Y22.4411
 X7.2416 Y22.0760
 X7.0842 Y21.7057
 X6.9398 Y21.3339
 X6.8103 Y20.9640
 X6.6971 Y20.5997
 X6.6022 Y20.2479
 X6.5174 Y19.8829
 X6.4432 Y19.5088
 X6.3803 Y19.1290
 X6.3293 Y18.7475
 X6.2908 Y18.3679
 X6.2653 Y17.9943
 X6.2537 Y17.6300
 X6.2559 Y17.2815
 X6.2706 Y16.9239
 X6.2977 Y16.5603
 X6.3366 Y16.1947
 X6.3870 Y15.8306
 X6.4485 Y15.4715
 X6.5208 Y15.1212
 X6.6036 Y14.7832
 X6.6942 Y14.4638
 X6.7989 Y14.1389
 X6.9162 Y13.8120
 X7.0451 Y13.4861
 X7.1844 Y13.1645
 X7.3325 Y12.8504
 X7.4885 Y12.5469
 X7.6510 Y12.2573
 X7.8153 Y11.9881
 X7.9938 Y11.7176
 X8.1845 Y11.4484
 X8.3855 Y11.1832
 X8.5948 Y10.9245
 X8.8106 Y10.6750
 X9.0307 Y10.4372
 X9.2534 Y10.2136
 X9.4723 Y10.0096
 X9.7046 Y9.8079
 X9.9478 Y9.6106
 X10.1994 Y9.4195
 X10.4570 Y9.2366
 X10.7180 Y9.0637
 X10.9800 Y8.9027
 X11.2406 Y8.7556
 X11.7545 Y8.5024
 X12.3039 Y8.2758
 X12.8671 Y8.0848
 X13.4221 Y7.9385
 X13.9535 Y7.8407
 X14.5100 Y7.7764
 X15.0697 Y7.7480
 X15.6104 Y7.7579
 X16.1153 Y7.8056
 X16.6347 Y7.8905
 X17.1476 Y8.0090
 X17.6332 Y8.1576
 X18.0750 Y8.3309
 X18.5201 Y8.5412
 X18.9508 Y8.7802
 X19.3492 Y9.0396
 X19.6997 Y9.3090
 X20.0436 Y9.6129
 X20.3668 Y9.9389
 X20.6556 Y10.2743
 X20.8969 Y10.6056
 X21.1233 Y10.9658
 X21.3253 Y11.3402
 X21.4933 Y11.7144
 X21.6203 Y12.0704
 X21.7261 Y12.4482
 X21.8060 Y12.8326
 X21.8557 Y13.2080
 X21.8722 Y13.5536
 X21.8646 Y13.9128
 X21.8321 Y14.2706
 X21.7746 Y14.6124
 X21.6968 Y14.9185
 X21.5931 Y15.2289
 X21.4672 Y15.5313
 X21.3236 Y15.8125
 X21.1739 Y16.0542
 X20.9994 Y16.2928
 X20.8078 Y16.5179
 X20.6057 Y16.7192
 X20.4107 Y16.8829
 X20.1953 Y17.0367
 X19.9688 Y17.1732
 X19.7404 Y17.2857
 X19.5285 Y17.3671
 X19.3026 Y17.4332
 X19.0724 Y17.4807
 X18.8475 Y17.5062
 X18.6474 Y17.5097
 X18.4404 Y17.4950
 X18.2357 Y17.4626
 X18.0428 Y17.4124
 X17.8781 Y17.3507
 X17.7140 Y17.2708
 X17.5587 Y17.1760
 X17.4199 Y17.0692
 X17.3090 Y16.9619
 X17.2060 Y16.8388
 X17.1161 Y16.7057
 X17.0449 Y16.5689
 X16.9974 Y16.4386
 X16.9639 Y16.2981
 X16.9464 Y16.1547
 X16.9471 Y16.0164
 X16.9658 Y15.8872
 X17.0019 Y15.7564
 X17.0535 Y15.6307
 X17.1178 Y15.5176
 X17.1825 Y15.4046
 X17.2342 Y15.2790
 X17.2708 Y15.1482
 X17.2904 Y15.0189
 X17.2910 Y14.8806
 X17.2735 Y14.7374
 X17.2399 Y14.5967
 X17.1922 Y14.4664
 X17.1211 Y14.3296
 X17.0313 Y14.1965
 X16.9276 Y14.0733
 X16.8163 Y13.9661
 X16.6774 Y13.8594
 X16.5221 Y13.7645
 X16.3585 Y13.6846
 X16.1946 Y13.6229
 X16.0008 Y13.5727
 X15.7960 Y13.5403
 X15.5892 Y13.5257
 X15.3899 Y13.5290
 X15.1650 Y13.5546
 X14.9346 Y13.6021
 X14.7088 Y13.6682
 X14.4971 Y13.7495
 X14.2679 Y13.8621
 X14.0412 Y13.9989
 X13.8258 Y14.1529
 X13.6303 Y14.3175
 X13.4290 Y14.5186
 X13.2376 Y14.7435
 X13.0630 Y14.9819
 X12.9124 Y15.2242
 X12.7689 Y15.5047
 X12.6434 Y15.8065
 X12.5396 Y16.1169
 X12.4615 Y16.4229
 X12.4044 Y16.7647
 X12.3719 Y17.1228
 X12.3643 Y17.4824
 X12.3818 Y17.8286
 X12.4306 Y18.2033
 X12.5100 Y18.5872
 X12.6154 Y18.9650
 X12.7427 Y19.3210
 X12.9106 Y19.6951
 X13.1127 Y20.0696
 X13.3395 Y20.4297
 X13.5819 Y20.7610
 X13.8698 Y21.0965
 X14.1928 Y21.4224
 X14.5369 Y21.7264
 X14.8883 Y21.9957
 X15.2858 Y22.2551
 X15.7161 Y22.4940
 X16.1614 Y22.7044
 X16.6039 Y22.8776
 X17.0888 Y23.0268
 X17.6014 Y23.1453
 X18.1210 Y23.2299
 X18.6269 Y23.2774
 X19.1671 Y23.2874
 X19.7267 Y23.2589
 X20.2836 Y23.1946
 X20.8153 Y23.0967
 X21.3696 Y22.9504
 X21.9324 Y22.7594
 X22.4821 Y22.5329
 X22.9968 Y22.2797
 X23.2572 Y22.1326
 X23.5190 Y21.9717
 X23.7799 Y21.7988
 X24.0372 Y21.6160
 X24.2886 Y21.4251
 X24.5315 Y21.2279
 X24.7636 Y21.0267
 X24.9824 Y20.8231
 X25.2050 Y20.5994
 X25.4253 Y20.3615
 X25.6411 Y20.1118
 X25.8506 Y19.8528
 X26.0518 Y19.5874
 X26.2428 Y19.3179
 X26.4217 Y19.0474
 X26.5864 Y18.7781
 X26.7483 Y18.4883
 X26.9040 Y18.1850
 X27.0521 Y17.8708
 X27.1911 Y17.5493
 X27.3201 Y17.2237
 X27.4378 Y16.8971
 X27.5426 Y16.5726
 X27.6338 Y16.2535
 X27.7160 Y15.9150
 X27.7881 Y15.5643
 X27.8493 Y15.2051
 X27.8996 Y14.8410
 X27.9383 Y14.4754
 X27.9653 Y14.1121
 X27.9801 Y13.7547
 X27.9824 Y13.4066
 X27.9710 Y13.0420
 X27.9460 Y12.6680
 X27.9076 Y12.2883
 X27.8567 Y11.9065
 X27.7936 Y11.5267
 X27.7192 Y11.1524
 X27.6339 Y10.7874
 X27.5385 Y10.4355
 X27.4258 Y10.0713
 X27.2967 Y9.7015
 X27.1525 Y9.3296
 X26.9951 Y8.9594
 X26.8261 Y8.5942
 X26.6474 Y8.2377
 X26.4603 Y7.8934
 X26.2668 Y7.5649
 X26.0521 Y7.2305
 X25.8194 Y6.8948
 X25.5711 Y6.5609
 X25.3101 Y6.2322
 X25.0390 Y5.9116
 X24.7604 Y5.6024
 X24.4769 Y5.3077
 X24.1914 Y5.0306
 X23.8833 Y4.7542
 X23.5568 Y4.4816
 X23.2154 Y4.2151
 X22.8626 Y3.9571
 X22.5019 Y3.7102
 X22.1369 Y3.4769
 X21.7711 Y3.2594
 X21.4081 Y3.0603
 X21.0231 Y2.8674
 X20.6206 Y2.6834
 X20.2047 Y2.5098
 X19.7799 Y2.3481
 X19.3500 Y2.1998
 X18.9197 Y2.0661
 X18.4931 Y1.9487
 X18.0742 Y1.8489
 X17.6357 Y1.7616
 X17.1822 Y1.6878
 X16.7182 Y1.6280
 X16.2485 Y1.5826
 X15.7775 Y1.5516
 X15.3099 Y1.5356
 X14.8501 Y1.5349
 X14.4032 Y1.5497
 X13.9407 Y1.5822
 X13.4670 Y1.6325
 X12.9865 Y1.6996
 X12.5042 Y1.7825
 X12.0246 Y1.8804
 X11.5525 Y1.9922
 X11.0926 Y2.1170
 X10.6496 Y2.2539
 X10.1963 Y2.4129
 X9.7366 Y2.5927
 X9.2749 Y2.7910
 X8.8156 Y3.0056
 X8.3633 Y3.2344
 X7.9222 Y3.4752
 X7.4967 Y3.7256
 X7.0915 Y3.9836
 X6.6825 Y4.2652
 X6.2727 Y4.5696
 X5.8659 Y4.8930
 X5.4660 Y5.2322
 X5.0766 Y5.5836
 X4.7016 Y5.9437
 X4.3448 Y6.3091
 X4.0100 Y6.6763
 X3.6790 Y7.0685
 X3.3532 Y7.4832
 X3.0356 Y7.9162
 X2.7290 Y8.3630
 X2.4362 Y8.8190
 X2.1603 Y9.2799
 X1.9039 Y9.7412
 X1.6700 Y10.1985
 X1.4468 Y10.6790
 X1.2349 Y11.1806
 X1.0360 Y11.6981
 X0.8518 Y12.2262
 X0.6839 Y12.7598
 X0.5340 Y13.2936
 X0.4038 Y13.8223
 X0.2949 Y14.3408
 X0.2025 Y14.8797
 X0.1272 Y15.4363
 X0.0691 Y16.0051
 X0.0285 Y16.5806
 X0.0056 Y17.1569
 X0.0007 Y17.7286
 X0.0139 Y18.2901
 X0.0455 Y18.8358
 X0.0992 Y19.3968
 X0.1747 Y19.9707
 X0.2708 Y20.5521
 X0.3860 Y21.1351
 X0.5192 Y21.7144
 X0.6689 Y22.2842
 X0.8338 Y22.8388
 X1.0128 Y23.3725
 X1.2174 Y23.9153
 X1.4472 Y24.4651
 X1.6993 Y25.0169
 X1.9709 Y25.5653
 X2.2593 Y26.1051
 X2.5616 Y26.6310
 X2.8751 Y27.1375
 X3.1969 Y27.6197
 X3.5462 Y28.1029
 X3.9224 Y28.5867
 X4.3212 Y29.0663
 X4.7386 Y29.5374
 X5.1702 Y29.9956
 X5.6119 Y30.4360
 X6.0593 Y30.8546
 X6.5084 Y31.2465
 X6.9851 Y31.6325
 X7.4884 Y32.0114
 X8.0131 Y32.3803
 X8.5538 Y32.7357
 X9.1050 Y33.0743
 X9.6616 Y33.3926
 X10.2181 Y33.6878
 X10.7693 Y33.9558
 X11.3453 Y34.2100
 X11.9461 Y34.4501
 X12.5654 Y34.6747
 X13.1968 Y34.8817
 X13.8342 Y35.0692
 X14.4715 Y35.2354
 X15.1024 Y35.3785
 X15.7206 Y35.4965
 X16.3594 Y35.5938
 X17.0192 Y35.6707
 X17.6929 Y35.7269
 X18.3740 Y35.7626
 X19.0560 Y35.7774
 X19.7321 Y35.7711
 X20.3956 Y35.7436
 X21.0400 Y35.6947
 X21.6988 Y35.6199
 X22.3725 Y35.5192
 X23.0549 Y35.3944
 X23.7387 Y35.2472
 X24.4178 Y35.0790
 X25.0853 Y34.8917
 X25.7347 Y34.6867
 X26.3592 Y34.4657
 X26.8631 Y34.3004
 X27.3863 Y34.1486
 X27.9236 Y34.0115
 X28.4697 Y33.8901
 X29.0192 Y33.7858
 X29.5668 Y33.6997
 X30.1072 Y33.6328
 X30.6351 Y33.5865
 X31.1481 Y33.5603
 X31.6758 Y33.5514
 X32.2129 Y33.5597
 X32.7543 Y33.5850
 X33.2946 Y33.6271
 X33.8285 Y33.6856
 X34.3508 Y33.7604
 X34.8562 Y33.8511
 X35.3415 Y33.9572
 X35.8362 Y34.0833
 X36.3354 Y34.2279
 X36.8342 Y34.3893
 X37.3278 Y34.5661
 X37.8111 Y34.7565
 X38.2796 Y34.9593
 X38.7283 Y35.1726
 X39.1543 Y35.3950
 X39.5839 Y35.6383
 X40.0128 Y35.9000
 X40.4371 Y36.1774
 X40.8526 Y36.4678
 X41.2553 Y36.7685
 X41.6408 Y37.0767
 X42.0053 Y37.3899
 X42.3450 Y37.7049
 X42.6829 Y38.0406
 X43.0158 Y38.3935
 X43.3406 Y38.7599
 X43.6538 Y39.1361
 X43.9522 Y39.5186
 X44.2331 Y39.9038
 X44.4926 Y40.2879
 X44.7286 Y40.6676
 X44.9576 Y41.0660
 X45.1776 Y41.4790
 X45.3864 Y41.9024
 X45.5821 Y42.3321
 X45.7624 Y42.7639
 X45.9256 Y43.1935
 X46.0692 Y43.6171
 X46.1919 Y44.0294
 X46.3035 Y44.4576
 X46.4028 Y44.8971
 X46.4890 Y45.3435
 X46.5614 Y45.7922
 X46.6190 Y46.2390
 X46.6610 Y46.6796
 X46.6867 Y47.1092
 X46.6957 Y47.5232
 X46.6904 Y47.9486
 X46.6708 Y48.3815
 X46.6374 Y48.8175
 X46.5903 Y49.2522
 X46.5300 Y49.6814
 X46.4567 Y50.1008
 X46.3708 Y50.5061
 X46.2739 Y50.8918
 X46.1606 Y51.2844
 X46.0322 Y51.6801
 X45.8903 Y52.0750
 X45.7361 Y52.4653
 X45.5710 Y52.8469
 X45.3963 Y53.2163
 X45.2135 Y53.5693
 X45.0258 Y53.9012
 X44.8214 Y54.2356
 X44.6022 Y54.5689
 X44.3706 Y54.8981
 X44.1288 Y55.2197
 X43.8792 Y55.5308
 X43.6240 Y55.8279
 X43.3656 Y56.1079
 X43.1079 Y56.3661
 X42.8340 Y56.6219
 X42.5469 Y56.8733
 X42.2493 Y57.1176
 X41.9443 Y57.3525
 X41.6346 Y57.5756
 X41.3233 Y57.7842
 X41.0132 Y57.9763
 X40.7108 Y58.1483
 X40.3939 Y58.3143
 X40.0657 Y58.4726
 X39.7296 Y58.6218
 X39.3889 Y58.7601
 X39.0471 Y58.8865
 X38.7072 Y58.9992
 X38.3728 Y59.0967
 X38.0511 Y59.1779
 X37.7178 Y59.2499
 X37.3763 Y59.3117
 X37.0297 Y59.3631
 X36.6818 Y59.4035
 X36.3358 Y59.4325
 X35.9954 Y59.4493
 X35.6638 Y59.4536
 X35.0247 Y59.4260
 X34.3654 Y59.3535
 X33.7121 Y59.2394
 X33.0910 Y59.0871
 X32.8050 Y58.9993
 X32.5144 Y58.8987
 X32.2221 Y58.7867
 X31.9311 Y58.6643
 X31.6440 Y58.5328
 X31.3640 Y58.3932
 X31.0938 Y58.2468
 X30.8362 Y58.0947
 X30.5983 Y57.9421
 X30.3596 Y57.7764
 X30.1222 Y57.5997
 X29.8885 Y57.4138
 X29.6610 Y57.2206
 X29.4417 Y57.0217
 X29.2332 Y56.8192
 X29.0379 Y56.6149
 X28.8610 Y56.4149
 X28.6867 Y56.2031
 X28.5167 Y55.9818
 X28.3525 Y55.7531
 X28.1957 Y55.5192
 X28.0482 Y55.2825
 X27.9114 Y55.0453
 X27.7869 Y54.8097
 X27.5757 Y54.3485
 X27.3894 Y53.8562
 X27.2356 Y53.3531
 X27.1212 Y52.8585
 X27.0501 Y52.3886
 X27.0097 Y51.8975
 X27.0015 Y51.4050
 X27.0274 Y50.9306
 X27.0854 Y50.4921
 X27.1765 Y50.0424
 X27.2971 Y49.5994
 X27.4436 Y49.1818
 X27.6094 Y48.8071
 X27.8082 Y48.4311
 X28.0317 Y48.0690
 X28.2719 Y47.7361
 X28.5165 Y47.4479
 X28.7906 Y47.1675
 X29.0833 Y46.9065
 X29.3839 Y46.6764
 X29.6750 Y46.4883
 X29.9900 Y46.3153
 X30.3161 Y46.1647
 X30.6406 Y46.0439
 X30.9446 Y45.9581
 X31.2653 Y45.8926
 X31.5894 Y45.8506
 X31.9044 Y45.8346
 X32.1890 Y45.8435
 X32.4829 Y45.8753
 X32.7736 Y45.9288
 X33.0482 Y46.0025
 X33.2885 Y46.0897
 X33.5296 Y46.1993
 X33.7611 Y46.3269
 X33.9729 Y46.4682
 X34.1490 Y46.6115
 X34.3192 Y46.7746
 X34.4756 Y46.9506
 X34.6107 Y47.1325
 X34.7131 Y47.3033
 X34.8039 Y47.4896
 X34.8785 Y47.6831
 X34.9321 Y47.8756
 X34.9604 Y48.0490
 X34.9729 Y48.2310
 X34.9683 Y48.4129
 X34.9458 Y48.5862
 X34.9081 Y48.7363
 X34.8529 Y48.8872
 X34.7828 Y49.0314
 X34.7003 Y49.1610
 X34.6110 Y49.2676
 X34.5060 Y49.3671
 X34.3908 Y49.4542
 X34.2706 Y49.5236
 X34.1493 Y49.5711
 X34.0176 Y49.6049
 X33.8829 Y49.6232
 X33.7524 Y49.6242
 X33.6225 Y49.6244
 X33.4883 Y49.6425
 X33.3568 Y49.6765
 X33.2356 Y49.7247
 X33.1153 Y49.7933
 X32.9999 Y49.8800
 X32.8949 Y49.9792
 X32.8056 Y50.0856
 X32.7224 Y50.2154
 X32.6522 Y50.3596
 X32.5969 Y50.5106
 X32.5589 Y50.6603
 X32.5371 Y50.8344
 X32.5329 Y51.0164
 X32.5456 Y51.1982
 X32.5742 Y51.3715
 X32.6274 Y51.5640
 X32.7015 Y51.7575
 X32.7922 Y51.9442
 X32.8951 Y52.1156
 X33.0294 Y52.2975
 X33.1856 Y52.4729
 X33.3557 Y52.6354
 X33.5319 Y52.7783
 X33.7443 Y52.9199
 X33.9760 Y53.0476
 X34.2168 Y53.1576
 X34.4565 Y53.2454
 X34.7317 Y53.3187
 X35.0224 Y53.3721
 X35.3163 Y53.4042
 X35.6017 Y53.4138
 X35.9158 Y53.3968
 X36.2400 Y53.3543
 X36.5610 Y53.2888
 X36.8653 Y53.2028
 X37.1897 Y53.0821
 X37.5158 Y52.9317
 X37.8307 Y52.7586
 X38.1218 Y52.5703
 X38.4218 Y52.3401
 X38.7146 Y52.0792
 X38.9892 Y51.7988
 X39.2342 Y51.5104
 X39.4742 Y51.1783
 X39.6972 Y50.8163
 X39.8954 Y50.4400
 X40.0611 Y50.0651
 X40.2082 Y49.6475
 X40.3292 Y49.2047
 X40.4204 Y48.7550
 X40.4785 Y48.3165
 X40.5043 Y47.8419
 X40.4963 Y47.3493
 X40.4558 Y46.8583
 X40.3849 Y46.3885
 X40.2706 Y45.8939
 X40.1165 Y45.3907
 X39.9304 Y44.8986
 X39.7193 Y44.4372
 X39.5946 Y44.2017
 X39.4576 Y43.9643
 X39.3099 Y43.7276
 X39.1531 Y43.4939
 X38.9887 Y43.2653
 X38.8186 Y43.0442
 X38.6446 Y42.8326
 X38.4679 Y42.6332
 X38.2725 Y42.4286
 X38.0640 Y42.2260
 X37.8449 Y42.0271
 X37.6172 Y41.8339
 X37.3836 Y41.6479
 X37.1461 Y41.4711
 X36.9074 Y41.3051
 X36.6694 Y41.1518
 X36.4121 Y40.9999
 X36.1419 Y40.8535
 X35.8618 Y40.7140
 X35.5749 Y40.5825
 X35.2837 Y40.4601
 X34.9915 Y40.3482
 X34.7011 Y40.2478
 X34.4153 Y40.1599
 X33.7940 Y40.0074
 X33.1406 Y39.8933
 X32.4812 Y39.8212
 X31.8425 Y39.7944
 X31.5107 Y39.7988
 X31.1701 Y39.8156
 X30.8242 Y39.8443
 X30.4763 Y39.8844
 X30.1294 Y39.9357
 X29.7875 Y39.9972
 X29.4539 Y40.0689
 X29.1317 Y40.1500
 X28.7976 Y40.2475
 X28.4581 Y40.3601
 X28.1164 Y40.4865
 X27.7758 Y40.6250
 X27.4397 Y40.7742
 X27.1115 Y40.9325
 X26.7943 Y41.0983
 X26.4915 Y41.2704
 X26.1818 Y41.4625
 X25.8708 Y41.6714
 X25.5615 Y41.8944
 X25.2567 Y42.1294
 X24.9592 Y42.3740
 X24.6721 Y42.6257
 X24.3982 Y42.8819
 X24.1406 Y43.1404
 X23.8815 Y43.4204
 X23.6260 Y43.7174
 X23.3761 Y44.0281
 X23.1342 Y44.3494
 X22.9025 Y44.6783
 X22.6832 Y45.0114
 X22.4787 Y45.3456
 X22.2914 Y45.6774
 X22.1087 Y46.0304
 X21.9343 Y46.3999
 X21.7694 Y46.7817
 X21.6153 Y47.1719
 X21.4735 Y47.5669
 X21.3453 Y47.9626
 X21.2319 Y48.3551
 X21.1349 Y48.7408
 X21.0492 Y49.1461
 X20.9760 Y49.5656
 X20.9157 Y49.9947
 X20.8688 Y50.4293
 X20.8353 Y50.8653
 X20.8157 Y51.2982
 X20.8104 Y51.7238
 X20.8196 Y52.1378
 X20.8451 Y52.5678
 X20.8871 Y53.0083
 X20.9447 Y53.4551
 X21.0171 Y53.9040
 X21.1033 Y54.3503
 X21.2026 Y54.7897
 X21.3140 Y55.2181
 X21.4369 Y55.6310
 X21.5804 Y56.0540
 X21.7433 Y56.4835
 X21.9236 Y56.9151
 X22.1190 Y57.3446
 X22.3278 Y57.7679
 X22.5476 Y58.1810
 X22.7768 Y58.5793
 X23.0132 Y58.9590
 X23.2728 Y59.3435
 X23.5533 Y59.7289
 X23.8518 Y60.1114
 X24.1649 Y60.4876
 X24.4894 Y60.8538
 X24.8224 Y61.2065
 X25.1604 Y61.5419
 X25.5006 Y61.8568
 X25.8649 Y62.1700
 X26.2506 Y62.4785
 X26.6531 Y62.7793
 X27.0686 Y63.0700
 X27.4928 Y63.3475
 X27.9215 Y63.6092
 X28.3507 Y63.8525
 X28.7761 Y64.0743
 X29.2249 Y64.2876
 X29.6936 Y64.4904
 X30.1774 Y64.6811
 X30.6711 Y64.8581
 X31.1703 Y65.0196
 X31.6696 Y65.1642
 X32.1646 Y65.2901
 X32.6500 Y65.3958
 X33.1553 Y65.4867
 X33.6774 Y65.5614
 X34.2112 Y65.6200
 X34.7515 Y65.6621
 X35.2929 Y65.6875
 X35.8301 Y65.6961
 X36.3579 Y65.6876
 X36.8710 Y65.6618
 X37.3983 Y65.6150
 X37.9385 Y65.5478
 X38.4860 Y65.4612
 X39.0354 Y65.3568
 X39.5815 Y65.2354
 X40.1188 Y65.0982
 X40.6419 Y64.9464
 X41.1456 Y64.7813
 X41.6582 Y64.5922
 X42.1778 Y64.3794
 X42.6994 Y64.1454
 X43.2181 Y63.8928
 X43.7287 Y63.6243
 X44.2264 Y63.3426
 X44.7060 Y63.0503
 X45.1626 Y62.7500
 X45.6211 Y62.4229
 X46.0803 Y62.0706
 X46.5357 Y61.6968
 X46.9833 Y61.3056
 X47.4187 Y60.9007
 X47.8376 Y60.4862
 X48.2357 Y60.0660
 X48.6089 Y59.6438
 X48.9763 Y59.1954
 X49.3374 Y58.7215
 X49.6890 Y58.2274
 X50.0281 Y57.7179
 X50.3513 Y57.1983
 X50.6554 Y56.6736
 X50.9374 Y56.1490
 X51.1940 Y55.6294
 X51.4378 Y55.0851
 X51.6686 Y54.5172
 X51.8847 Y53.9318
 X52.0842 Y53.3349
 X52.2653 Y52.7319
 X52.4260 Y52.1290
 X52.5647 Y51.5322
 X52.6796 Y50.9471
 X52.7754 Y50.3418
 X52.8519 Y49.7165
 X52.9090 Y49.0778
 X52.9464 Y48.4319
 X52.9637 Y47.7853
 X52.9611 Y47.1440
 X52.9382 Y46.5146
 X52.8949 Y45.9035
 X52.8268 Y45.2772
 X52.7344 Y44.6365
 X52.6193 Y43.9878
 X52.4828 Y43.3374
 X52.3264 Y42.6915
 X52.1518 Y42.0567
 X51.9603 Y41.4389
 X51.7536 Y40.8446
 X51.5183 Y40.2425
 X51.2553 Y39.6326
 X50.9672 Y39.0208
 X50.6575 Y38.4131
 X50.3293 Y37.8150
 X49.9857 Y37.2328
 X49.6297 Y36.6719
 X49.2647 Y36.1386
 X48.8710 Y35.6057
 X48.4474 Y35.0725
 X47.9985 Y34.5442
 X47.5292 Y34.0254
 X47.0440 Y33.5213
 X46.5479 Y33.0368
 X46.0456 Y32.5769
 X45.5415 Y32.1465
 X45.1468 Y31.7929
 X44.7539 Y31.4156
 X44.3664 Y31.0188
 X43.9883 Y30.6064
 X43.6231 Y30.1825
 X43.2744 Y29.7515
 X42.9461 Y29.3169
 X42.6421 Y28.8833
 X42.3629 Y28.4524
 X42.0915 Y27.9999
 X41.8303 Y27.5304
 X41.5817 Y27.0489
 X41.3479 Y26.5599
 X41.1317 Y26.0683
 X40.9353 Y25.5789
 X40.7610 Y25.0963
 X40.6099 Y24.6226
 X40.4715 Y24.1310
 X40.3471 Y23.6261
 X40.2375 Y23.1133
 X40.1439 Y22.5975
 X40.0671 Y22.0835
 X40.0083 Y21.5763
 X39.9686 Y21.0810
 X39.9481 Y20.6011
 X39.9442 Y20.1075
 X39.9565 Y19.6050
 X39.9847 Y19.0989
 X40.0288 Y18.5938
 X40.0881 Y18.0950
 X40.1622 Y17.6071
 X40.2513 Y17.1354
 X40.3542 Y16.6832
 X40.4760 Y16.2225
 X40.6151 Y15.7576
 X40.7701 Y15.2933
 X40.9394 Y14.8340
 X41.1214 Y14.3844
 X41.3147 Y13.9489
 X41.5176 Y13.5318
 X41.7283 Y13.1373
 X41.9589 Y12.7396
 X42.2064 Y12.3426
 X42.4688 Y11.9500
 X42.7431 Y11.5658
 X43.0268 Y11.1938
 X43.3174 Y10.8377
 X43.6121 Y10.5015
 X43.9081 Y10.1889
 X44.2231 Y9.8784
 X44.5539 Y9.5727
 X44.8972 Y9.2749
 X45.2497 Y8.9879
 X45.6079 Y8.7146
 X45.9685 Y8.4579
 X46.3282 Y8.2208
 X46.6822 Y8.0061
 X47.0536 Y7.7981
 X47.4382 Y7.5987
 X47.8324 Y7.4098
 X48.2322 Y7.2332
 X48.6339 Y7.0708
 X49.0335 Y6.9244
 X49.4274 Y6.7959
 X49.8096 Y6.6869
 X50.2061 Y6.5887
 X50.6131 Y6.5019
 X51.0261 Y6.4274
 X51.4414 Y6.3657
 X51.8547 Y6.3177
 X52.2619 Y6.2840
 X52.6592 Y6.2653
 X53.0403 Y6.2620
 X53.4318 Y6.2721
 X53.8299 Y6.2956
 X54.2304 Y6.3319
 X54.6297 Y6.3808
 X55.0237 Y6.4418
 X55.4085 Y6.5148
 X55.7801 Y6.5991
 X56.1326 Y6.6928
 X56.4914 Y6.8017
 X56.8528 Y6.9244
 X57.2132 Y7.0596
 X57.5692 Y7.2062
 X57.9171 Y7.3626
 X58.2535 Y7.5277
 X58.5749 Y7.7001
 X58.8754 Y7.8760
 X59.1779 Y8.0677
 X59.4792 Y8.2729
 X59.7765 Y8.4894
 X60.0668 Y8.7152
 X60.3472 Y8.9481
 X60.6147 Y9.1860
 X60.8665 Y9.4266
 X61.0975 Y9.6649
 X61.3261 Y9.9180
 X61.5503 Y10.1831
 X61.7679 Y10.4575
 X61.9767 Y10.7387
 X62.1747 Y11.0239
 X62.3599 Y11.3105
 X62.5299 Y11.5958
 X62.6803 Y11.8726
 X62.8250 Y12.1625
 X62.9625 Y12.4624
 X63.0918 Y12.7693
 X63.2112 Y13.0802
 X63.3197 Y13.3919
 X63.4160 Y13.7016
 X63.4986 Y14.0060
 X63.6239 Y14.5992
 X63.7125 Y15.2215
 X63.7614 Y15.8483
 X63.7674 Y16.4546
 X63.7293 Y17.0271
 X63.6507 Y17.6164
 X63.5346 Y18.1996
 X63.3843 Y18.7533
 X63.2033 Y19.2629
 X62.9808 Y19.7772
 X62.7258 Y20.2763
 X62.4474 Y20.7390
 X62.1525 Y21.1525
 X61.8189 Y21.5597
 X61.4597 Y21.9444
 X61.0885 Y22.2907
 X60.7175 Y22.5874
 X60.3125 Y22.8678
 X59.8899 Y23.1210
 X59.4664 Y23.3351
 X59.0578 Y23.5044
 X58.6228 Y23.6507
 X58.1790 Y23.7676
 X57.7440 Y23.8492
 X57.3360 Y23.8933
 X56.9108 Y23.9096
 X56.4858 Y23.8974
 X56.0779 Y23.8563
 X55.7061 Y23.7879
 X55.3264 Y23.6903
 X54.9542 Y23.5672
 X54.6047 Y23.4219
 X54.2963 Y23.2639
 X53.9890 Y23.0774
 X53.6953 Y22.8700
 X53.4278 Y22.6490
 X53.2019 Y22.4286
 X52.9851 Y22.1836
 X52.7864 Y21.9240
 X52.6150 Y21.6594
 X52.4801 Y21.4085
 X52.3604 Y21.1382
 X52.2613 Y20.8599
 X52.1878 Y20.5846
 X52.1438 Y20.3339
 X52.1183 Y20.0704
 X52.1133 Y19.8058
 X52.1300 Y19.5512
 X52.1654 Y19.3274
 X52.2210 Y19.0986
 X52.2949 Y18.8756
 X52.3847 Y18.6679
 X52.4817 Y18.4929
 X52.5981 Y18.3208
 X52.7286 Y18.1597
 X52.8683 Y18.0174
 X53.0044 Y17.9064
 X53.1558 Y17.8044
 X53.3158 Y17.7171
 X53.4776 Y17.6494
 X53.6257 Y17.6074
 X53.7840 Y17.5797
 X53.9439 Y17.5683
 X54.0978 Y17.5750
 X54.2344 Y17.5997
 X54.3732 Y17.6410
 X54.5064 Y17.6972
 X54.6269 Y17.7667
 X54.7285 Y17.8479
 X54.8233 Y17.9451
 X54.9060 Y18.0526
 X54.9712 Y18.1649
G0 Z10.0000
M5 (stop spindle)
G04 P3 (wait for 3 seconds)
G0 Z10.0000
M2 (end program)

