;PYCAM-META-DATA: Filename: /home/crepp052/Bureau/files_svg_cnc/C_75.svg
;PYCAM-META-DATA: Timestamp: 2015-05-06 18:38:42.541419
;PYCAM-META-DATA: Version: 0.5.1
;Estimated machine time: 2 minutes
G40 (disable tool radius compensation)
G49 (disable tool length compensation)
G80 (cancel modal motion)
G54 (select coordinate system 1)
G90 (disable incremental moves)
G21 (metric)
G61 (exact path mode)
F6.00000
S1000.00000
;PYCAM_TOOLPATH_SETTINGS: START
;[Bounds]
;maxz = 0.0
;maxx = 82.4100213
;maxy = 92.70608001
;minx = -8.0634343
;miny = -8.91368011
;minz = 0.0
;
;[Tool]
;torus_radius = 0.25
;speed = 1000.0
;shape = SphericalCutter
;tool_radius = 0.5
;feedrate = 200.0
;
;[Process]
;engrave_offset = 0.0
;step_down = 1.0
;generator = EngraveCutter
;postprocessor = SimpleCutter
;overlap_percent = 0
;milling_style = conventional
;material_allowance = 0.0
;pocketing_type = none
;path_direction = x
;
;PYCAM_TOOLPATH_SETTINGS: END
T3 M6
G0 Z10.0000
M3 (start spindle)
G04 P3 (wait for 3 seconds)
 X43.4847 Y-0.0287
G1 Z0.0000 F2
 X42.2050 Y-0.0182
 X40.9428 Y0.0143
 X39.6979 Y0.0688
 X38.4706 Y0.1453
 X37.2607 Y0.2438
 X36.0682 Y0.3642
 X34.8933 Y0.5066
 X33.7357 Y0.6710
 X32.5956 Y0.8572
 X31.4728 Y1.0654
 X30.3674 Y1.2955
 X29.2794 Y1.5475
 X28.2089 Y1.8214
 X27.1556 Y2.1171
 X26.1197 Y2.4346
 X25.1013 Y2.7740
 X24.1004 Y3.1338
 X23.1190 Y3.5132
 X22.1572 Y3.9122
 X21.2147 Y4.3308
 X20.2917 Y4.7689
 X19.3882 Y5.2266
 X18.5039 Y5.7039
 X17.6390 Y6.2007
 X16.7935 Y6.7171
 X15.9672 Y7.2530
 X15.1604 Y7.8084
 X14.3728 Y8.3834
 X13.6045 Y8.9779
 X12.8555 Y9.5919
 X12.1258 Y10.2253
 X11.4153 Y10.8782
 X10.7243 Y11.5494
 X10.0543 Y12.2390
 X9.4049 Y12.9472
 X8.7764 Y13.6739
 X8.1686 Y14.4190
 X7.5815 Y15.1825
 X7.0152 Y15.9646
 X6.4696 Y16.7650
 X5.9448 Y17.5838
 X5.4406 Y18.4210
 X4.9573 Y19.2765
 X4.4945 Y20.1503
 X4.0525 Y21.0425
 X3.6311 Y21.9529
 X3.2304 Y22.8817
 X2.8504 Y23.8288
 X2.4916 Y24.7924
 X2.1561 Y25.7714
 X1.8439 Y26.7661
 X1.5549 Y27.7761
 X1.2891 Y28.8018
 X1.0464 Y29.8428
 X0.8270 Y30.8994
 X0.6308 Y31.9715
 X0.4576 Y33.0590
 X0.3076 Y34.1619
 X0.1808 Y35.2803
 X0.0770 Y36.4142
 X-0.0037 Y37.5635
 X-0.0613 Y38.7282
 X-0.0958 Y39.9083
 X-0.1073 Y41.1039
 X-0.0964 Y42.4633
 X-0.0622 Y43.8000
 X-0.0048 Y45.1137
 X0.0758 Y46.4047
 X0.1796 Y47.6729
 X0.3066 Y48.9183
 X0.4568 Y50.1408
 X0.6302 Y51.3407
 X0.8267 Y52.5176
 X1.0462 Y53.6717
 X1.2890 Y54.8029
 X1.5547 Y55.9114
 X1.8436 Y56.9969
 X2.1555 Y58.0597
 X2.4904 Y59.0997
 X2.8484 Y60.1167
 X3.2276 Y61.1115
 X3.6274 Y62.0846
 X4.0478 Y63.0360
 X4.4888 Y63.9658
 X4.9503 Y64.8738
 X5.4323 Y65.7603
 X5.9349 Y66.6250
 X6.4581 Y67.4681
 X7.0017 Y68.2894
 X7.5658 Y69.0892
 X8.1504 Y69.8672
 X8.7554 Y70.6235
 X9.3810 Y71.3582
 X10.0269 Y72.0711
 X10.6933 Y72.7624
 X11.3801 Y73.4321
 X12.0862 Y74.0796
 X12.8118 Y74.7061
 X13.5573 Y75.3117
 X14.3224 Y75.8961
 X15.1069 Y76.4596
 X15.9112 Y77.0018
 X16.7351 Y77.5231
 X17.5786 Y78.0232
 X18.4417 Y78.5021
 X19.3242 Y78.9599
 X20.2263 Y79.3965
 X21.1478 Y79.8119
 X22.0889 Y80.2063
 X23.0493 Y80.5793
 X24.0293 Y80.9311
 X25.0287 Y81.2617
 X26.0461 Y81.5712
 X27.0808 Y81.8608
 X28.1332 Y82.1306
 X29.2031 Y82.3804
 X30.2904 Y82.6103
 X31.3953 Y82.8203
 X32.5176 Y83.0103
 X33.6574 Y83.1803
 X34.8146 Y83.3304
 X35.9892 Y83.4606
 X37.1813 Y83.5707
 X38.3907 Y83.6608
 X39.6175 Y83.7310
 X40.8617 Y83.7811
 X42.1233 Y83.8111
 X43.4022 Y83.8211
 X45.5592 Y83.8006
 X47.6756 Y83.7415
 X49.7514 Y83.6438
 X51.7864 Y83.5074
 X53.7808 Y83.3321
 X55.7343 Y83.1178
 X57.6468 Y82.8644
 X59.5183 Y82.5718
 X61.3449 Y82.2532
 X63.1254 Y81.9247
 X64.8597 Y81.5864
 X66.5476 Y81.2381
 X68.1892 Y80.8796
 X69.7842 Y80.5108
 X71.3324 Y80.1315
 X72.8336 Y79.7417
 X73.1985 Y60.1244
 X67.6754
 X65.9729 Y72.0258
 X65.0008 Y72.6654
 X63.9986 Y73.2681
 X62.9662 Y73.8337
 X61.9037 Y74.3622
 X60.8108 Y74.8536
 X59.6875 Y75.3075
 X58.5336 Y75.7242
 X57.3490 Y76.1032
 X56.1417 Y76.4410
 X54.9215 Y76.7338
 X53.6883 Y76.9815
 X52.4422 Y77.1843
 X51.1829 Y77.3419
 X49.9103 Y77.4547
 X48.6243 Y77.5224
 X47.3250 Y77.5449
 X45.7490 Y77.5146
 X44.2158 Y77.4268
 X42.7247 Y77.2813
 X41.2761 Y77.0779
 X39.8693 Y76.8167
 X38.5046 Y76.4972
 X37.1817 Y76.1196
 X35.9003 Y75.6835
 X35.2757 Y75.4408
 X34.6633 Y75.1793
 X34.0632 Y74.8993
 X33.4751 Y74.6004
 X32.8993 Y74.2829
 X32.3356 Y73.9467
 X31.7839 Y73.5915
 X31.2444 Y73.2178
 X30.7171 Y72.8251
 X30.2019 Y72.4136
 X29.6988 Y71.9833
 X29.2078 Y71.5342
 X28.7289 Y71.0663
 X28.2621 Y70.5793
 X27.8074 Y70.0735
 X27.3647 Y69.5487
 X26.9340 Y69.0042
 X26.5164 Y68.4392
 X26.1121 Y67.8536
 X25.7210 Y67.2475
 X25.3431 Y66.6210
 X24.9782 Y65.9740
 X24.6265 Y65.3067
 X24.2879 Y64.6187
 X23.9625 Y63.9103
 X23.6501 Y63.1812
 X23.3507 Y62.4319
 X23.0644 Y61.6619
 X22.7912 Y60.8715
 X22.5310 Y60.0606
 X22.2838 Y59.2292
 X22.0496 Y58.3771
 X21.8289 Y57.5017
 X21.6224 Y56.6010
 X21.4301 Y55.6753
 X21.2522 Y54.7243
 X21.0885 Y53.7483
 X20.9390 Y52.7471
 X20.8039 Y51.7207
 X20.6828 Y50.6692
 X20.5761 Y49.5924
 X20.4836 Y48.4903
 X20.4053 Y47.3629
 X20.3412 Y46.2104
 X20.2915 Y45.0325
 X20.2560 Y43.8293
 X20.2346 Y42.6008
 X20.2275 Y41.3469
 X20.2339 Y40.2415
 X20.2549 Y39.1543
 X20.2901 Y38.0853
 X20.3399 Y37.0346
 X20.4039 Y36.0021
 X20.4824 Y34.9878
 X20.5751 Y33.9917
 X20.6824 Y33.0136
 X20.8039 Y32.0539
 X20.9396 Y31.1124
 X21.0897 Y30.1888
 X21.2540 Y29.2835
 X21.4325 Y28.3961
 X21.6253 Y27.5269
 X21.8324 Y26.6758
 X22.0535 Y25.8428
 X22.2876 Y25.0274
 X22.5342 Y24.2297
 X22.7932 Y23.4497
 X23.0646 Y22.6872
 X23.3485 Y21.9426
 X23.6447 Y21.2157
 X23.9533 Y20.5064
 X24.2744 Y19.8147
 X24.6079 Y19.1407
 X24.9536 Y18.4844
 X25.3118 Y17.8457
 X25.6824 Y17.2246
 X26.0653 Y16.6211
 X26.4606 Y16.0353
 X26.8681 Y15.4671
 X27.2881 Y14.9164
 X27.7200 Y14.3826
 X28.1642 Y13.8658
 X28.6206 Y13.3660
 X29.0890 Y12.8834
 X29.5697 Y12.4176
 X30.0625 Y11.9690
 X30.5675 Y11.5373
 X31.0847 Y11.1226
 X31.6140 Y10.7249
 X32.1556 Y10.3441
 X32.7090 Y9.9802
 X33.2749 Y9.6334
 X33.8526 Y9.3033
 X34.4426 Y8.9902
 X35.0447 Y8.6940
 X35.6590 Y8.4146
 X36.9186 Y7.9060
 X38.2200 Y7.4655
 X39.5628 Y7.0930
 X40.9469 Y6.7884
 X42.3722 Y6.5517
 X43.8386 Y6.3826
 X45.3457 Y6.2814
 X46.8936 Y6.2476
 X47.7461 Y6.2543
 X48.5853 Y6.2754
 X49.4110 Y6.3110
 X50.2233 Y6.3608
 X51.0222 Y6.4250
 X51.8075 Y6.5036
 X52.5794 Y6.5965
 X53.3378 Y6.7037
 X54.0826 Y6.8251
 X54.8140 Y6.9610
 X55.5317 Y7.1111
 X56.2358 Y7.2754
 X56.9264 Y7.4540
 X57.6033 Y7.6470
 X58.2667 Y7.8541
 X58.9164 Y8.0755
 X60.1665 Y8.5427
 X61.3478 Y9.0311
 X62.4600 Y9.5405
 X63.5029 Y10.0709
 X64.4767 Y10.6222
 X65.3810 Y11.1946
 X66.2158 Y11.7879
 X66.9812 Y12.4021
 X68.9307 Y25.8057
 X74.4539
 X74.0890 Y5.0902
 X73.4169 Y4.8330
 X72.7161 Y4.5796
 X71.9864 Y4.3302
 X71.2276 Y4.0847
 X70.4397 Y3.8430
 X69.6224 Y3.6051
 X68.7756 Y3.3710
 X67.8990 Y3.1406
 X66.0851 Y2.6953
 X64.2108 Y2.2782
 X62.2757 Y1.8883
 X60.2794 Y1.5245
 X58.2339 Y1.1899
 X56.1556 Y0.8908
 X54.0435 Y0.6267
 X51.8968 Y0.3969
 X49.7476 Y0.2102
 X47.6293 Y0.0773
 X45.5417 Y-0.0022
 X43.4847 Y-0.0287
G0 Z10.0000
M5 (stop spindle)
G04 P3 (wait for 3 seconds)
G0 Z10.0000
M2 (end program)

